localPackages/DesignSystem/Sources/DesignSystem/Resources/Assets.xcassets/IconSet/ic-arrow-up-from-square.imageset/ic-arrow-up-from-square.svg

<svg width="24" height="24" viewBox="0 0 24 24" fill="none" xmlns="http://www.w3.org/2000/svg">
<g id="ic-arrow-up-from-square">
<g id="Icon">
<path d="M7.72114 4.93162C7.42744 4.63954 7.42612 4.16467 7.7182 3.87096L11.2555 0.313995C11.666 -0.0988052 12.334 -0.0988062 12.7445 0.313995L16.2818 3.87096C16.5739 4.16466 16.5726 4.63954 16.2789 4.93162C15.9852 5.2237 15.5103 5.22238 15.2182 4.92867L12.75 2.44674V13.4499C12.75 13.8641 12.4142 14.1999 12 14.1999C11.5858 14.1999 11.25 13.8641 11.25 13.4499V2.44674L8.7818 4.92867C8.48972 5.22238 8.01485 5.2237 7.72114 4.93162Z" fill="#0F0F0F"/>
<path d="M4.5 9.66651C4.5 8.83808 5.17157 8.16651 6 8.16651H9.09976V6.66651H6C4.34315 6.66651 3 8.00966 3 9.66651V19.4958C3 21.1527 4.34315 22.4958 6 22.4958H18C19.6569 22.4958 21 21.1527 21 19.4958V9.66651C21 8.00965 19.6569 6.66651 18 6.66651H15V8.16651H18C18.8284 8.16651 19.5 8.83808 19.5 9.66651V19.4958C19.5 20.3242 18.8284 20.9958 18 20.9958H6C5.17157 20.9958 4.5 20.3242 4.5 19.4958V9.66651Z" fill="#0F0F0F"/>
</g>
</g>
</svg>

<svg xmlns="http://www.w3.org/2000/svg" width="24" height="24" viewBox="0 0 24 24">
  <g class="ic-arrow-up-from-square">
    <g class="Icon">
      <path d="M7.721 4.931a.75.75 0 0 1-.003-1.06L11.255.313a1.05 1.05 0 0 1 1.49 0l3.537 3.556a.75.75 0 1 1-1.064 1.058L12.75 2.446V13.45a.75.75 0 0 1-1.5 0V2.446L8.782 4.928a.75.75 0 0 1-1.06.003Z"/>
      <path d="M4.5 9.666a1.5 1.5 0 0 1 1.5-1.5h3.1v-1.5H6a3 3 0 0 0-3 3v9.83a3 3 0 0 0 3 3h12a3 3 0 0 0 3-3v-9.83a3 3 0 0 0-3-3h-3v1.5h3a1.5 1.5 0 0 1 1.5 1.5v9.83a1.5 1.5 0 0 1-1.5 1.5H6a1.5 1.5 0 0 1-1.5-1.5v-9.83Z"/>
    </g>
  </g>
</svg>
